icons/reading-two-color.svg

<?xml version="1.0" encoding="UTF-8"?><svg xmlns="http://www.w3.org/2000/svg" viewBox="0 0 50 50"><g id="uuid-4ed9d23b-80d5-4f9d-8889-3394989a99ea"><path d="M39.06,36.56c0-1.94,1.58-3.51,3.51-3.51,.44,0,.86,.09,1.25,.24v-5H9.67v5.59c.77,.65,1.26,1.6,1.26,2.68s-.5,2.03-1.26,2.68v9.94H43.83v-9.34c-.39,.15-.81,.24-1.25,.24-1.94,0-3.51-1.58-3.51-3.51Z" fill="#ffcd00"/><path d="M19.4,16.33c1.56,1.32,3.54,2.05,5.58,2.05s4.02-.73,5.58-2.05c1.95-1.65,3.07-4.06,3.07-6.61,0-4.77-3.88-8.65-8.65-8.65s-8.65,3.88-8.65,8.65c0,2.55,1.12,4.96,3.07,6.61ZM24.98,2.07c4.22,0,7.65,3.43,7.65,7.65,0,2.25-.99,4.38-2.72,5.84-1.38,1.17-3.13,1.81-4.94,1.81s-3.56-.64-4.94-1.81c-1.73-1.46-2.72-3.59-2.72-5.84,0-4.22,3.43-7.65,7.65-7.65Z"/><path d="M47.09,36.56c0-2.32-1.76-4.21-4.01-4.46v-6.06c0-.28-.22-.5-.5-.5h-3.21c-1.26-3.28-4.35-5.66-8.06-5.84h-12.65c-3.71,.18-6.81,2.56-8.06,5.84h-3.17c-.28,0-.5,.22-.5,.5v6.06c-2.25,.25-4.01,2.15-4.01,4.46s1.76,4.21,4.01,4.46v6.9c0,.28,.22,.5,.5,.5H42.58c.28,0,.5-.22,.5-.5v-6.9c2.25-.25,4.01-2.15,4.01-4.46Zm-36.15,0c0,1.94-1.58,3.51-3.51,3.51s-3.51-1.58-3.51-3.51,1.58-3.51,3.51-3.51,3.51,1.58,3.51,3.51Zm-3.01,4.46c2.25-.25,4.01-2.15,4.01-4.46s-1.76-4.21-4.01-4.46v-5.56H24.49v20.88H7.92v-6.4Zm10.76-20.32h12.42c.08,.02,.17,.02,.26,0,3.12,.2,5.73,2.14,6.92,4.84H11.68c1.2-2.73,3.86-4.69,7.01-4.84Zm6.82,26.72v-1.38h.01V26.54h16.56v5.56c-2.25,.25-4.01,2.15-4.01,4.46s1.76,4.21,4.01,4.46v6.4H25.5Zm13.56-10.86c0-1.94,1.58-3.51,3.51-3.51s3.51,1.58,3.51,3.51-1.58,3.51-3.51,3.51-3.51-1.58-3.51-3.51Z"/></g><g id="uuid-c766a39c-0475-44da-986f-88c86c7f93cb"><text transform="translate(-.1 54.83)" font-family="Roboto-Regular, Roboto" font-size="6"><tspan x="0" y="0" letter-spacing="0em">r</tspan><tspan x="1.97" y="0">eading</tspan></text></g></svg>

<svg xmlns="http://www.w3.org/2000/svg" viewBox="0 0 50 50"><g id="e3dd0d04-2fba-4120-8450-d86c8a33d3e7" data-name="ICONS"><path d="M39.06,36.56A3.53,3.53,0,0,1,42.58,33a3.47,3.47,0,0,1,1.25.24v-5H9.67v5.59a3.45,3.45,0,0,1,0,5.35v9.94H43.83V39.83a3.47,3.47,0,0,1-1.25.24A3.52,3.52,0,0,1,39.06,36.56Z" fill="#fdd600"/><path d="M19.4,16.33a8.65,8.65,0,1,0-3.07-6.6A8.65,8.65,0,0,0,19.4,16.33ZM25,2.07a7.65,7.65,0,1,1-7.65,7.66A7.67,7.67,0,0,1,25,2.07Z" fill="#231f20"/><path d="M47.09,36.56a4.51,4.51,0,0,0-4-4.47V26a.5.5,0,0,0-.5-.5H39.37A9.11,9.11,0,0,0,31.3,19.7H18.66a9.09,9.09,0,0,0-8.06,5.84H7.42a.5.5,0,0,0-.5.5v6.05a4.49,4.49,0,0,0,0,8.93v6.9a.5.5,0,0,0,.5.5H42.58a.5.5,0,0,0,.5-.5V41A4.5,4.5,0,0,0,47.09,36.56Zm-36.15,0A3.52,3.52,0,1,1,7.42,33,3.52,3.52,0,0,1,10.94,36.56ZM7.92,41a4.49,4.49,0,0,0,0-8.93V26.54H24.49V47.42H7.92ZM18.68,20.7H31.11a.57.57,0,0,0,.26,0,8.13,8.13,0,0,1,6.92,4.84H11.68A8.08,8.08,0,0,1,18.68,20.7ZM25.5,47.42V46h0V26.54H42.08v5.55a4.49,4.49,0,0,0,0,8.93v6.4ZM39.06,36.56a3.52,3.52,0,1,1,3.52,3.51A3.53,3.53,0,0,1,39.06,36.56Z" fill="#231f20"/></g><g id="f257b388-6253-4547-9e3a-9e46d0184e02" data-name="LABELS"><text transform="translate(-0.1 54.83)" font-size="6" fill="#231f20" font-family="Roboto-Regular, Roboto"><tspan letter-spacing="-0.01em">r</tspan><tspan x="1.97" y="0">eading</tspan></text></g></svg>
